images/themes/default/mIconRaster.svg

<svg height="16" width="16" xmlns="http://www.w3.org/2000/svg"><path d="m6.333 2h4.334v4.333h-4.334z" fill="#aec7e2"/><path d="m2 2h4.333v4.333h-4.333zm4.333 4.333h4.334v4.334h-4.334zm4.334-4.333h4.333v4.333h-4.333z" fill="#2b3b4d"/><path d="m2 6.333h4.333v4.334h-4.333zm8.667 0h4.333v4.334h-4.333zm-4.334 4.334h4.334v4.333h-4.334z" fill="#aec7e2"/><path d="m2 10.667h4.333v4.333h-4.333z" fill="#2b3b4d"/></svg>

<svg xmlns="http://www.w3.org/2000/svg" height="16" width="16"><defs><linearGradient id="a"><stop stop-color="#aec7e2" offset="0"/><stop stop-color="#6e97c4" offset="1"/></linearGradient></defs><path d="M6.333 2h4.334v4.333H6.333z" fill="#aec7e2"/><path d="M2 2h4.333v4.333H2zM6.333 6.333h4.334v4.334H6.333zM10.667 2H15v4.333h-4.333z" fill="#2b3b4d"/><path d="M2 6.333h4.333v4.334H2zM10.667 6.333H15v4.334h-4.333zM6.333 10.667h4.334V15H6.333z" fill="#aec7e2"/><path d="M2 10.667h4.333V15H2z" fill="#2b3b4d"/></svg>
